onboarding/background.svg

<?xml version="1.0" encoding="UTF-8"?>
<svg id="Layer_1" data-name="Layer 1" xmlns="http://www.w3.org/2000/svg" viewBox="0 0 1366 768">
  <defs>
    <style>
      .cls-1 {
        fill: #ff9f00;
        opacity: .5;
      }

      .cls-2 {
        fill: #ffc26d;
        opacity: .5;
      }
    </style>
  </defs>
  <rect class="cls-1" width="1366" height="768"/>
  <path class="cls-2" d="m1366,0v288c-29.55-1.35-47.65,24.68-90,65-52.62,50.09-78.93,75.14-105,79-54.39,8.06-115.88-43.08-146-90-33.62-52.38-22.6-90.87-64-121-30.39-22.12-48.8-10.44-71-28-41.36-32.71-42.38-124.57-14.09-193h490.09Z"/>
  <path class="cls-2" d="m384,750c-.26,6.9-.41,12.83-.54,18H0v-379.07c44.03-9.63,96.98,2.58,116,31.07,23.04,34.51-13.45,78.32,11,105,21.04,22.96,68.35,12.64,132-2,105.65-24.31,129.09-52.48,149-38,30.72,22.34-17.61,94.86-24,265Z"/>
  <path class="cls-1" d="m284.76,768H0v-310.46c9.79-2.53,19.09-2.72,27.5-.04,36.49,11.65,26.01,67.87,75,95,49.84,27.6,93.63-12.33,133,6,29.85,13.9,57.65,61.52,49.26,209.5Z"/>
  <path class="cls-1" d="m1366,0v197.01c-11.44,21.77-27.74,44.98-51,65.99-19.33,17.46-78.91,71.26-159,61-67.91-8.7-138.52-61.93-137-112,1.16-38.12,43.12-40.79,71-96,22.85-45.24,14.44-82.59,8.83-116h267.17Z"/>
</svg>

<svg width="1366" height="768" viewBox="0 0 1366 768" fill="none" xmlns="http://www.w3.org/2000/svg">
<g clip-path="url(#clip0_707_6)">
<rect width="1366" height="768" fill="#FF9F00"/>
<path opacity="0.5" d="M1366 0V288C1336.45 286.65 1318.35 312.68 1276 353C1223.38 403.09 1197.07 428.14 1171 432C1116.61 440.06 1055.12 388.92 1025 342C991.38 289.62 1002.4 251.13 961 221C930.61 198.88 912.2 210.56 890 193C848.64 160.29 847.62 68.43 875.91 0H1366Z" fill="white" fill-opacity="0.3"/>
<path opacity="0.5" d="M384 750C383.74 756.9 383.59 762.83 383.46 768H0V388.93C44.03 379.3 96.98 391.51 116 420C139.04 454.51 102.55 498.32 127 525C148.04 547.96 195.35 537.64 259 523C364.65 498.69 388.09 470.52 408 485C438.72 507.34 390.39 579.86 384 750Z" fill="white" fill-opacity="0.3"/>
<path opacity="0.5" d="M284.76 768H0V457.54C9.79 455.01 19.09 454.82 27.5 457.5C63.99 469.15 53.51 525.37 102.5 552.5C152.34 580.1 196.13 540.17 235.5 558.5C265.35 572.4 293.15 620.02 284.76 768Z" fill="white" fill-opacity="0.5"/>
<path opacity="0.5" d="M1366 0V197.01C1354.56 218.78 1338.26 241.99 1315 263C1295.67 280.46 1236.09 334.26 1156 324C1088.09 315.3 1017.48 262.07 1019 212C1020.16 173.88 1062.12 171.21 1090 116C1112.85 70.76 1104.44 33.41 1098.83 0H1366Z" fill="white" fill-opacity="0.5"/>
</g>
<defs>
<clipPath id="clip0_707_6">
<rect width="1366" height="768" fill="white"/>
</clipPath>
</defs>
</svg>
